X: 13
T:McElroy's Fancy
% Nottingham Music Database
S:via PR
M:2/4
L:1/4
K:D
"Em"B B3/4A/4|"D"F/2A/2 D/2A/2|"Em""C"B B3/4A/4|"G""Bm"B/4c/4d/2 "C""b"e/2d/2|\
"G""Em"B B3/4A/4|"D"F/2A/2 D3/4E/4|"D"F/2D/2 "B7"A/2F/2|"Em"E E::
"Em"B/2e/2 e3/4f/4|e/2d/2 B/2A/2|"Em"B/2e/2 e3/4f/4|"Em"e/2d/2 "A7"B/2c/2|\
"D"d/2e/2 d/2B/2|A/2F/2 D3/4E/4|"D"F/2D/2 "B7"A/2F/2|"Em"E E:|


